icons/evolvere-blue-folders-flat-vivid-dark-fallback/apps/64/gimp.svg

<?xml version="1.0" encoding="UTF-8" standalone="no"?>
<!-- Created with Inkscape (http://www.inkscape.org/) -->

<svg
   xmlns:dc="http://purl.org/dc/elements/1.1/"
   xmlns:cc="http://creativecommons.org/ns#"
   xmlns:rdf="http://www.w3.org/1999/02/22-rdf-syntax-ns#"
   xmlns:svg="http://www.w3.org/2000/svg"
   xmlns="http://www.w3.org/2000/svg"
   xmlns:sodipodi="http://sodipodi.sourceforge.net/DTD/sodipodi-0.dtd"
   xmlns:inkscape="http://www.inkscape.org/namespaces/inkscape"
   width="64"
   height="64"
   id="svg13094"
   version="1.1"
   inkscape:version="0.91+devel r"
   sodipodi:docname="gimp.svg">
  <sodipodi:namedview
     id="base"
     pagecolor="#ffffff"
     bordercolor="#666666"
     borderopacity="1.0"
     inkscape:pageopacity="0"
     inkscape:pageshadow="2"
     inkscape:zoom="11.313709"
     inkscape:cx="21.520292"
     inkscape:cy="33.263294"
     inkscape:document-units="px"
     inkscape:current-layer="svg13094"
     showgrid="true"
     inkscape:snap-bbox="true"
     inkscape:bbox-paths="true"
     inkscape:bbox-nodes="true"
     inkscape:snap-bbox-edge-midpoints="true"
     inkscape:snap-bbox-midpoints="true"
     inkscape:object-paths="true"
     inkscape:snap-intersection-paths="true"
     inkscape:object-nodes="true"
     inkscape:snap-smooth-nodes="true"
     inkscape:snap-midpoints="true"
     inkscape:snap-object-midpoints="true"
     inkscape:snap-center="true"
     showguides="true"
     inkscape:guide-bbox="true"
     inkscape:window-width="1920"
     inkscape:window-height="1023"
     inkscape:window-x="-10"
     inkscape:window-y="35"
     inkscape:window-maximized="1"
     inkscape:snap-global="false"
     fit-margin-top="0"
     fit-margin-left="0"
     fit-margin-right="0"
     fit-margin-bottom="0"
     showborder="true"
     inkscape:showpageshadow="false"
     inkscape:snap-page="true">
    <inkscape:grid
       type="xygrid"
       id="grid3075"
       empspacing="5"
       visible="true"
       enabled="true"
       snapvisiblegridlinesonly="true"
       originx="1.6362304e-08px"
       originy="18px" />
  </sodipodi:namedview>
  <defs
     id="defs13096" />
  <metadata
     id="metadata13099">
    <rdf:RDF>
      <cc:Work
         rdf:about="">
        <dc:format>image/svg+xml</dc:format>
        <dc:type
           rdf:resource="http://purl.org/dc/dcmitype/StillImage" />
        <dc:title></dc:title>
      </cc:Work>
    </rdf:RDF>
  </metadata>
  <path
     style="color:#000000;fill:#ac5c21;fill-opacity:1;fill-rule:nonzero;stroke:none;stroke-width:2.28571415;marker:none;visibility:visible;display:inline;overflow:visible;enable-background:accumulate"
     d="M 0 4 L 0 34 L 0 62 L 2 64 L 32 64 L 62 64 L 64 62 L 64 34 L 64 4 L 32 4 L 0 4 z "
     id="path6498" />
  <path
     style="color:#000000;fill:#d98033;fill-opacity:1;fill-rule:nonzero;stroke:none;marker:none;visibility:visible;display:inline;overflow:visible;enable-background:accumulate;stroke-width:2.28571415"
     d="M 2 0 L 0 1 L 0 4 L 32 4 L 64 4 L 64 1 L 62 0 L 32 0 L 2 0 z "
     id="path6502" />
  <path
     style="fill:#e29d61;fill-opacity:1;fill-rule:nonzero"
     d="M 0,3 0,6 2,4 Z"
     id="path4298"
     inkscape:connector-curvature="0"
     sodipodi:nodetypes="cccc" />
  <path
     d="M 64,6 62,4 64,3 z"
     id="path3028"
     style="fill:#c16d2a;fill-opacity:1"
     inkscape:connector-curvature="0" />
  <g
     id="g3043"
     inkscape:export-filename="folder.png"
     inkscape:export-xdpi="90"
     inkscape:export-ydpi="90"
     transform="translate(-0.62500009,0.082283)" />
  <g
     id="scalable"
     transform="matrix(1.0385892,0,0,1.0385892,1214.7222,1878.8121)"
     inkscape:label="#g3701"
     style="fill:#ffffff" />
  <path
     style="color:#000000;fill:#ffe397;fill-opacity:0.84078711;fill-rule:evenodd;stroke:none;stroke-width:0.9999997;marker:none;visibility:visible;display:inline;overflow:visible"
     d="M 52.103516 13.361328 C 51.99196 13.344104 51.87498 13.401795 51.759766 13.517578 C 51.744405 13.533014 51.728184 13.536753 51.712891 13.554688 C 51.584483 13.699877 51.459315 13.934555 51.34375 14.28125 C 50.953405 15.452287 48.518622 22.573901 36.53125 24.9375 C 36.534549 24.940701 36.537723 24.944058 36.541016 24.947266 C 36.538918 24.94768 36.537255 24.948805 36.535156 24.949219 C 36.694716 25.10402 36.84816 25.266218 36.992188 25.435547 C 37.135623 25.604181 37.269705 25.780953 37.396484 25.962891 C 37.396484 25.962891 37.398438 25.964844 37.398438 25.964844 C 37.400087 25.967222 37.400698 25.970276 37.402344 25.972656 C 37.518849 26.140444 37.627177 26.314028 37.728516 26.492188 C 37.759025 26.546098 37.787345 26.601445 37.816406 26.65625 C 37.885664 26.786173 37.950847 26.91799 38.011719 27.052734 C 38.052623 27.143835 38.090017 27.236897 38.126953 27.330078 C 38.166801 27.429933 38.205079 27.530685 38.240234 27.632812 C 38.27718 27.74098 38.310259 27.850352 38.341797 27.960938 C 38.369689 28.057865 38.396313 28.15523 38.419922 28.253906 C 38.450682 28.383813 38.476846 28.515672 38.5 28.648438 C 38.513024 28.722238 38.524555 28.79647 38.535156 28.871094 C 38.556314 29.022043 38.574886 29.173998 38.585938 29.328125 C 38.598008 29.493299 38.611377 29.657771 38.611328 29.826172 C 38.611654 30.953425 38.33262 32.020892 37.847656 32.96875 C 37.786673 33.08745 37.721651 33.203483 37.654297 33.318359 C 37.590053 33.427987 37.526976 33.538754 37.457031 33.644531 C 37.383898 33.755305 37.303662 33.860405 37.224609 33.966797 C 37.053836 34.195846 36.87066 34.414704 36.673828 34.621094 C 36.63164 34.665535 36.59215 34.712539 36.548828 34.755859 C 36.418852 34.885243 36.282257 35.008044 36.142578 35.126953 C 36.095097 35.167498 36.046614 35.206834 35.998047 35.246094 C 35.223555 35.870657 34.314436 36.329075 33.324219 36.574219 C 33.267893 36.579762 33.212987 36.589783 33.15625 36.59375 C 33.12388 36.59605 33.095 36.62326 33.0625 36.625 C 32.658942 36.70943 32.252258 36.760347 31.830078 36.771484 C 31.784079 36.772412 31.739565 36.779297 31.693359 36.779297 C 31.376696 36.779297 31.06646 36.751665 30.761719 36.708984 C 30.714914 36.702291 30.667567 36.697133 30.621094 36.689453 C 30.346332 36.644979 30.078948 36.580795 29.816406 36.503906 C 29.726716 36.477145 29.638861 36.446419 29.550781 36.416016 C 29.44058 36.378629 29.334155 36.333885 29.226562 36.291016 C 28.931282 36.171464 28.644577 36.035123 28.371094 35.876953 C 28.339487 35.858845 28.306682 35.842818 28.275391 35.824219 C 27.959012 35.634522 27.657076 35.422853 27.375 35.1875 C 26.869203 34.764372 26.420277 34.275507 26.050781 33.726562 C 26.0136 33.671932 25.975199 33.618169 25.939453 33.5625 C 25.77788 33.307205 25.630107 33.043198 25.501953 32.767578 C 24.556966 34.141145 23.007863 35.050781 21.210938 35.050781 C 21.079744 35.050781 20.952968 35.035783 20.824219 35.025391 C 20.67322 35.013238 20.524537 34.995021 20.376953 34.970703 C 20.304107 34.958041 20.231949 34.941543 20.160156 34.925781 C 20.067939 34.906651 19.975166 34.887082 19.884766 34.863281 C 19.500903 34.756547 19.13446 34.610667 18.791016 34.427734 C 18.79284 34.432898 18.793106 34.438195 18.794922 34.443359 C 18.790564 34.441055 18.785599 34.439816 18.78125 34.4375 C 19.946671 37.736044 19.409235 41.022172 17.1875 42.625 C 16.995872 42.763246 16.796646 42.880796 16.591797 42.988281 C 16.484219 43.042682 16.378235 43.097272 16.265625 43.144531 C 16.266833 43.145284 16.268323 43.145732 16.269531 43.146484 C 16.262837 43.149334 16.256711 43.153433 16.25 43.15625 C 16.691039 43.431027 17.152849 43.70423 17.625 43.96875 C 17.631603 43.965205 17.637927 43.960598 17.644531 43.957031 C 31.217681 51.558637 56.883425 54.263112 52.677734 14.640625 C 52.681024 14.636294 52.684232 14.629242 52.6875 14.625 C 52.67993 14.553738 52.666644 14.488766 52.658203 14.417969 C 52.657724 14.413947 52.656692 14.410314 52.65625 14.40625 C 52.655959 14.403575 52.656541 14.401111 52.65625 14.398438 C 52.57518 13.763123 52.356372 13.400365 52.103516 13.361328 z M 16.957031 18.203125 L 16.804688 24.759766 L 16.78125 25.71875 C 17.074981 25.292397 17.439624 24.9172 17.84375 24.59375 L 17.84375 24.582031 C 18.766717 23.840738 19.936166 23.392578 21.210938 23.392578 C 21.26516 23.392578 21.31868 23.40071 21.373047 23.404297 C 21.373047 23.404297 21.375 23.40625 21.375 23.40625 C 21.478937 23.41235 21.581688 23.4281 21.6875 23.4375 C 21.681931 23.433736 21.677431 23.429549 21.671875 23.425781 C 21.679569 23.42649 21.687645 23.427053 21.695312 23.427734 C 19.411091 21.88363 18.047399 19.984471 17.408203 18.958984 C 17.355099 18.872971 17.258952 18.739796 17.216797 18.667969 C 17.051062 18.385574 16.96875 18.218752 16.96875 18.21875 L 16.96875 18.224609 C 16.968421 18.223945 16.957031 18.203125 16.957031 18.203125 z M 31.761719 23.738281 C 29.397011 23.738281 27.376924 25.104753 26.427734 27.09375 C 26.298656 27.345986 26.17854 27.604276 26.09375 27.875 C 26.098509 27.884029 26.102632 27.893341 26.107422 27.902344 C 25.938232 28.455304 25.847476 29.043329 25.847656 29.654297 C 25.8476 29.84509 25.857686 30.032322 25.875 30.21875 C 25.89452 30.428929 25.924294 30.636333 25.964844 30.839844 C 26.005427 31.043524 26.056651 31.243641 26.117188 31.439453 C 26.17685 31.63244 26.244297 31.821662 26.322266 32.005859 C 26.344478 32.058759 26.37283 32.108047 26.396484 32.160156 C 26.451293 32.279978 26.506089 32.40019 26.568359 32.515625 C 26.64773 32.663693 26.735079 32.807117 26.826172 32.947266 C 26.836269 32.962725 26.845233 32.978781 26.855469 32.994141 C 26.942599 33.125511 27.035804 33.251373 27.132812 33.375 C 27.158276 33.407406 27.182874 33.440798 27.208984 33.472656 C 27.294228 33.57671 27.384496 33.675592 27.476562 33.773438 C 27.519457 33.819142 27.561176 33.865832 27.605469 33.910156 C 27.690652 33.995047 27.780786 34.074813 27.871094 34.154297 C 27.929854 34.206397 27.988035 34.258838 28.048828 34.308594 C 28.074988 34.329799 28.098462 34.354245 28.125 34.375 C 28.120648 34.369479 28.117614 34.362958 28.113281 34.357422 C 29.116759 35.156188 30.379108 35.638672 31.761719 35.638672 C 35.046749 35.638672 37.747065 32.93933 37.746094 29.654297 C 37.747065 26.369266 35.046749 23.738281 31.761719 23.738281 z M 20.726562 24.222656 C 19.632784 24.222656 18.631676 24.590225 17.8125 25.191406 L 17.8125 25.1875 C 17.655359 25.303013 17.50596 25.427973 17.363281 25.560547 C 17.259362 25.657398 17.163627 25.759842 17.068359 25.865234 C 16.965805 25.977912 16.871321 26.09705 16.779297 26.21875 C 16.698245 26.326933 16.619011 26.434045 16.546875 26.548828 C 16.428307 26.735382 16.323468 26.930429 16.230469 27.132812 C 16.202528 27.194367 16.171944 27.253536 16.146484 27.316406 C 16.042559 27.569831 15.960679 27.834609 15.900391 28.107422 C 15.878822 28.205906 15.861302 28.305666 15.845703 28.40625 C 15.835152 28.47402 15.822164 28.540681 15.814453 28.609375 C 15.796445 28.769186 15.787549 28.931653 15.785156 29.095703 C 15.784908 29.116158 15.781244 29.135731 15.78125 29.15625 L 15.78125 29.160156 L 15.78125 29.169922 C 15.781237 29.214559 15.793074 29.256759 15.796875 29.300781 C 15.808874 29.451762 15.826244 29.603067 15.84375 29.75 C 15.845629 29.751911 15.84773 29.753946 15.849609 29.755859 C 15.849609 29.755859 15.849609 29.757812 15.849609 29.757812 C 15.930442 29.839995 16.00794 29.93338 16.087891 30.019531 C 16.449932 30.412031 16.803824 30.836058 17.125 31.28125 C 17.652503 32.012439 18.062795 32.763134 18.40625 33.53125 C 18.458931 33.559327 18.516574 33.576437 18.570312 33.601562 C 18.730373 33.680039 18.893684 33.750789 19.0625 33.8125 C 19.582995 34.002769 20.139951 34.117188 20.726562 34.117188 C 21.157236 34.117188 21.566894 34.039723 21.962891 33.931641 C 21.96524 33.933079 21.966396 33.936069 21.96875 33.9375 C 22.012095 33.9254 22.052818 33.907695 22.095703 33.894531 C 22.330339 33.823184 22.556712 33.736905 22.775391 33.632812 C 22.855432 33.595366 22.935986 33.558899 23.013672 33.517578 C 23.115619 33.462331 23.214819 33.405529 23.3125 33.34375 C 23.466288 33.248098 23.61396 33.144113 23.755859 33.033203 C 23.782685 33.012117 23.813443 32.996183 23.839844 32.974609 C 23.836866 32.976333 23.833065 32.976803 23.830078 32.978516 C 23.834417 32.974994 23.839424 32.972285 23.84375 32.96875 C 23.431683 33.20718 22.947829 33.34375 22.4375 33.34375 C 21.908107 33.34375 21.424016 33.189499 21 32.9375 C 21.00607 32.948003 21.015283 32.956369 21.021484 32.966797 C 20.187283 32.481417 19.620789 31.587216 19.621094 30.552734 C 19.620638 29.005382 20.874522 27.751953 22.421875 27.751953 C 23.447157 27.751953 24.335842 28.309035 24.824219 29.130859 C 24.820288 29.128902 24.816481 29.127325 24.8125 29.125 C 24.83191 29.15726 24.85682 29.1857 24.875 29.21875 C 24.875406 29.213934 24.874936 29.205469 24.875 29.199219 C 24.876143 29.201284 24.877768 29.203009 24.878906 29.205078 C 24.880906 29.181958 24.876706 29.157816 24.878906 29.134766 C 24.909506 28.82947 24.981875 28.528058 25.050781 28.236328 C 25.127031 27.9135 25.208314 27.603676 25.328125 27.300781 C 24.863156 26.152597 23.972582 25.2279 22.855469 24.701172 C 22.7878 24.668313 22.713982 24.646937 22.644531 24.617188 C 22.494183 24.554507 22.344855 24.489392 22.1875 24.441406 C 22.155349 24.431407 22.126212 24.415593 22.09375 24.40625 C 22.078537 24.406592 22.064012 24.409689 22.048828 24.410156 C 21.626506 24.294387 21.184935 24.222657 20.726562 24.222656 z M 25.121094 25.087891 C 25.122693 25.089595 25.123402 25.092044 25.125 25.09375 C 25.429782 25.418612 25.68768 25.761612 25.90625 26.15625 C 25.907517 26.154248 25.908889 26.152391 25.910156 26.150391 C 25.912019 26.153733 25.914161 26.156808 25.916016 26.160156 C 26.019602 25.996462 26.133503 25.841766 26.242188 25.683594 C 26.308436 25.592342 26.364294 25.493146 26.4375 25.40625 C 26.435448 25.405837 26.433692 25.40471 26.431641 25.404297 C 26.43315 25.402495 26.434032 25.400236 26.435547 25.398438 C 25.98563 25.307938 25.538185 25.217403 25.121094 25.087891 z M 9.21875 27.0625 C 8.1842952 27.03346 7.2181832 27.28924 6.40625 27.875 C 3.8080653 29.749411 3.8292899 34.247584 6.46875 37.90625 C 6.9636518 38.592249 7.5046225 39.194503 8.09375 39.71875 C 7.8713494 39.46253 7.6729084 39.18924 7.46875 38.90625 C 4.8292899 35.247584 4.8080653 30.749411 7.40625 28.875 C 8.2181832 28.28924 9.1842952 28.03346 10.21875 28.0625 C 11.878508 28.10906 13.707866 28.906219 15.28125 30.3125 C 13.52552 28.283309 11.24246 27.119268 9.21875 27.0625 z M 33.527344 27.820312 C 35.427696 27.820312 36.986889 29.345741 36.986328 31.246094 C 36.986889 33.146447 35.427696 34.705078 33.527344 34.705078 C 31.626991 34.705078 30.101 33.146447 30.101562 31.246094 C 30.101001 29.345741 31.626991 27.820312 33.527344 27.820312 z M 9.5019531 28.861328 C 9.1075448 28.850258 8.7353485 28.950494 8.4257812 29.173828 C 7.4351668 29.888488 7.4467734 31.603101 8.453125 32.998047 C 9.4594827 34.392991 11.089465 34.945127 12.080078 34.230469 C 13.070693 33.515811 13.059082 31.801195 12.052734 30.40625 C 11.360863 29.447225 10.369648 28.885668 9.5019531 28.861328 z M 37.849609 37.263672 C 39.84062 37.79721 41.255889 38.590751 41.941406 39.628906 C 42.046934 39.788783 42.133286 39.954494 42.203125 40.125 C 42.229921 40.190218 42.249916 40.257332 42.271484 40.324219 C 42.318291 40.47031 42.353952 40.619611 42.375 40.773438 C 42.38238 40.825764 42.394044 40.876449 42.398438 40.929688 C 42.414758 41.139651 42.406422 41.357628 42.375 41.582031 C 42.369893 41.620083 42.361972 41.658811 42.355469 41.697266 C 42.313642 41.936525 42.252791 42.181571 42.15625 42.4375 C 42.157787 42.440312 42.156875 42.44488 42.15625 42.449219 C 42.021613 42.804664 41.832143 43.175327 41.585938 43.560547 C 41.544767 42.628875 41.409416 42.092041 41.21875 41.669922 C 41.205662 41.637544 41.191514 41.603301 41.177734 41.572266 C 41.12545 41.466473 41.06783 41.362743 41.007812 41.267578 C 40.962255 41.190917 40.926851 41.104867 40.875 41.03125 C 40.871455 41.034762 40.866836 41.03751 40.863281 41.041016 C 40.861923 41.039084 40.860736 41.037089 40.859375 41.035156 C 40.742368 41.151088 40.610506 41.256566 40.482422 41.365234 C 40.402943 41.432357 40.329752 41.504123 40.246094 41.568359 C 40.117353 41.667701 39.976341 41.757294 39.837891 41.849609 C 39.718876 41.928511 39.600629 42.008481 39.474609 42.082031 C 39.34385 42.158825 39.208461 42.231877 39.070312 42.302734 C 38.897931 42.390538 38.718727 42.47249 38.535156 42.550781 C 38.426431 42.597506 38.3196 42.646168 38.207031 42.689453 C 37.214584 43.067942 36.07895 43.313665 34.814453 43.400391 C 34.791131 43.402026 34.767548 43.402769 34.744141 43.404297 C 34.315684 43.431611 33.873791 43.443114 33.417969 43.433594 C 32.948727 43.423793 32.465068 43.394477 31.96875 43.34375 C 31.9485 43.34255 31.92657 43.34505 31.90625 43.34375 C 31.83432 43.33615 31.759974 43.32098 31.6875 43.3125 C 31.655431 43.310179 31.620104 43.305196 31.587891 43.302734 C 29.269478 43.019049 26.682294 42.288535 23.910156 41 C 32.437621 43.542701 37.797907 42.32296 39.890625 39.408203 C 39.203207 38.520289 37.849609 37.263665 37.849609 37.263672 z "
     id="path3003" />
</svg>

<svg xmlns="http://www.w3.org/2000/svg" viewBox="0 0 64 64"><g color="#000"><path d="m0 4v30 28l2 2h30 30l2-2v-28-30h-32-32" fill="#ac5c21"/><path d="m2 0l-2 1v3h32 32v-3l-2-1h-30-30" fill="#d98033"/></g><path d="m0 3v3l2-2" fill="#e29d61"/><path d="m64 6l-2-2 2-1z" fill="#c16d2a"/><path d="m52.1 13.361c-.112-.017-.229.04-.344.156-.015.015-.032.019-.047.037-.128.145-.254.38-.369.727-.39 1.171-2.825 8.293-14.813 10.656.003.003.006.007.01.01-.002 0-.004.002-.006.002.16.155.313.317.457.486.143.169.278.345.404.527 0 0 .002.002.002.002.002.002.002.005.004.008.117.168.225.341.326.52.031.054.059.109.088.164.069.13.134.262.195.396.041.091.078.184.115.277.04.1.078.201.113.303.037.108.07.218.102.328.028.097.055.194.078.293.031.13.057.262.08.395.013.074.025.148.035.223.021.151.04.303.051.457.012.165.025.33.025.498 0 1.127-.279 2.195-.764 3.143-.061.119-.126.235-.193.35-.064.11-.127.22-.197.326-.073.111-.153.216-.232.322-.171.229-.354.448-.551.654-.042.044-.082.091-.125.135-.13.129-.267.252-.406.371-.047.041-.096.08-.145.119-.774.625-1.684 1.083-2.674 1.328-.056.006-.111.016-.168.02-.032.002-.061.03-.094.031-.404.084-.81.135-1.232.146-.046.001-.091.008-.137.008-.317 0-.627-.028-.932-.07-.047-.007-.094-.012-.141-.02-.275-.044-.542-.109-.805-.186-.09-.027-.178-.057-.266-.088-.11-.037-.217-.082-.324-.125-.295-.12-.582-.256-.855-.414-.032-.018-.064-.034-.096-.053-.316-.19-.618-.401-.9-.637-.506-.423-.955-.912-1.324-1.461-.037-.055-.076-.108-.111-.164-.162-.255-.309-.519-.438-.795-.945 1.374-2.494 2.283-4.291 2.283-.131 0-.258-.015-.387-.025-.151-.012-.3-.03-.447-.055-.073-.013-.145-.029-.217-.045-.092-.019-.185-.039-.275-.063-.384-.107-.75-.253-1.094-.436.002.005.002.01.004.016-.004-.002-.009-.004-.014-.006 1.165 3.299.628 6.585-1.594 8.188-.192.138-.391.256-.596.363-.108.054-.214.109-.326.156.001.001.003.001.004.002-.007.003-.013.007-.02.01.441.275.903.548 1.375.813.007-.004.013-.008.02-.012 13.573 7.602 39.24 10.306 35.03-29.32.003-.004.006-.011.01-.016-.008-.071-.021-.136-.029-.207 0-.004-.002-.008-.002-.012 0-.003 0-.005 0-.008-.081-.635-.3-.998-.553-1.037m-35.15 4.842l-.152 6.557-.023.959c.294-.426.658-.802 1.063-1.125v-.012c.923-.741 2.092-1.189 3.367-1.189.054 0 .108.008.162.012 0 0 .002.002.002.002.104.006.207.022.313.031-.006-.004-.01-.008-.016-.012.008.001.016.001.023.002-2.284-1.544-3.648-3.443-4.287-4.469-.053-.086-.149-.219-.191-.291-.166-.282-.248-.449-.248-.449v.006c0-.001-.012-.021-.012-.021m14.805 5.535c-2.365 0-4.385 1.366-5.334 3.355-.129.252-.249.511-.334.781.005.009.009.018.014.027-.169.553-.26 1.141-.26 1.752 0 .191.01.378.027.564.02.21.049.418.09.621.041.204.092.404.152.6.06.193.127.382.205.566.022.053.051.102.074.154.055.12.11.24.172.355.079.148.167.291.258.432.01.015.019.032.029.047.087.131.18.257.277.381.025.032.05.066.076.098.085.104.176.203.268.301.043.046.085.092.129.137.085.085.175.165.266.244.059.052.117.105.178.154.026.021.05.046.076.066-.004-.006-.007-.012-.012-.018 1 .799 2.266 1.281 3.648 1.281 3.285 0 5.985-2.699 5.984-5.984.001-3.285-2.699-5.916-5.984-5.916m-11.04.484c-1.094 0-2.095.368-2.914.969v-.004c-.157.116-.307.24-.449.373-.104.097-.2.199-.295.305-.103.113-.197.232-.289.354-.081.108-.16.215-.232.33-.119.187-.223.382-.316.584-.028.062-.059.121-.084.184-.104.253-.186.518-.246.791-.022.098-.039.198-.055.299-.011.068-.024.134-.031.203-.018.16-.027.322-.029.486 0 .02-.004.04-.004.061v.004.01c0 .045.012.087.016.131.012.151.029.302.047.449.002.002.004.004.006.006 0 0 0 .002 0 .002.081.082.158.176.238.262.362.392.716.817 1.037 1.262.528.731.938 1.482 1.281 2.25.053.028.11.045.164.07.16.078.323.149.492.211.52.19 1.077.305 1.664.305.431 0 .84-.077 1.236-.186.002.001.004.004.006.006.043-.012.084-.03.127-.043.235-.071.461-.158.68-.262.08-.037.161-.074.238-.115.102-.055.201-.112.299-.174.154-.096.301-.2.443-.311.027-.021.058-.037.084-.059-.003.002-.007.002-.01.004.004-.004.009-.006.014-.01-.412.238-.896.375-1.406.375-.529 0-1.013-.154-1.438-.406.006.011.015.019.021.029-.834-.485-1.401-1.38-1.4-2.414 0-1.547 1.253-2.801 2.801-2.801 1.025 0 1.914.557 2.402 1.379-.004-.002-.008-.004-.012-.006.019.032.044.061.063.094 0-.005 0-.013 0-.02.001.002.003.004.004.006.002-.023-.002-.047 0-.07.031-.305.103-.607.172-.898.076-.323.158-.633.277-.936-.465-1.148-1.356-2.073-2.473-2.6-.068-.033-.141-.054-.211-.084-.15-.063-.3-.128-.457-.176-.032-.01-.061-.026-.094-.035-.015 0-.03.003-.045.004-.422-.116-.864-.187-1.322-.188m4.395.865c.002.002.002.004.004.006.305.325.563.668.781 1.063.001-.002.003-.004.004-.006.002.003.004.006.006.01.104-.164.217-.318.326-.477.066-.091.122-.19.195-.277-.002 0-.004-.002-.006-.002.002-.002.002-.004.004-.006-.45-.09-.897-.181-1.314-.311m-15.902 1.975c-1.034-.029-2 .227-2.813.813-2.598 1.874-2.577 6.373.063 10.03.495.686 1.036 1.288 1.625 1.813-.222-.256-.421-.53-.625-.813-2.639-3.659-2.661-8.157-.063-10.03.812-.586 1.778-.842 2.813-.813 1.66.047 3.489.844 5.063 2.25-1.756-2.029-4.04-3.193-6.06-3.25m24.309.758c1.9 0 3.46 1.525 3.459 3.426.001 1.9-1.559 3.459-3.459 3.459-1.9 0-3.426-1.559-3.426-3.459-.001-1.9 1.525-3.426 3.426-3.426m-24.03 1.041c-.394-.011-.767.089-1.076.313-.991.715-.979 2.429.027 3.824 1.01 1.395 2.636 1.947 3.627 1.232.991-.715.979-2.429-.027-3.824-.692-.959-1.683-1.521-2.551-1.545m28.348 8.402c1.991.534 3.406 1.327 4.092 2.365.106.16.192.326.262.496.027.065.047.132.068.199.047.146.082.295.104.449.007.052.019.103.023.156.016.21.008.428-.023.652-.005.038-.013.077-.02.115-.042.239-.103.484-.199.74.002.003.001.007 0 .012-.135.355-.324.726-.57 1.111-.041-.932-.177-1.469-.367-1.891-.013-.032-.027-.067-.041-.098-.052-.106-.11-.21-.17-.305-.046-.077-.081-.163-.133-.236-.004.004-.008.006-.012.01-.001-.002-.003-.004-.004-.006-.117.116-.249.221-.377.33-.079.067-.153.139-.236.203-.129.099-.27.189-.408.281-.119.079-.237.159-.363.232-.131.077-.266.15-.404.221-.172.088-.352.17-.535.248-.109.047-.216.095-.328.139-.992.378-2.128.624-3.393.711-.023.002-.047.002-.07.004-.428.027-.87.039-1.326.029-.469-.01-.953-.039-1.449-.09-.02-.001-.042.001-.063 0-.072-.008-.146-.023-.219-.031-.032-.002-.067-.007-.1-.01-2.318-.284-4.906-1.014-7.678-2.303 8.527 2.543 13.888 1.323 15.98-1.592-.687-.888-2.041-2.145-2.041-2.145" fill="#ffe397" fill-rule="evenodd" fill-opacity=".841" color="#000"/></svg>
